X:1
T:Learning MacPherson to Waltz
T:Learning McFadden To Dance
N:from the playing of Sally Sloane
Z:Ian Hayden 2017
L:1/8
M:3/4
K:G
|:G2B2d2|d2e2c2|B2c2A2|G4Bc|d2g2g2|f2g2 a2|g6-|g2 z2ef|
g2a2f2|g2d2B2|c2d2e2|d2B2G2-|G2A2B2|c2d2c2|B2c2A2|G4 A2||
G4g2|d6|c2B2A2|G6-|G2B2c2|d2e2f2|g2a2g2|f3 z ef|
g2a2f2|g2d2B2|c2d2e2|d2B2G2-|G2A2B2|c2d2c2|B2c2A2|1G4BA:|2G6|]
